X: 1
T:Bag Rag  "CYMRU"
M:C|
L:1/8
Q:80
C:Dorothy May
S:Ragtime 2 Step
K:HP
|: e|
{g}AB/2{G}AB/2{GdG}c/2e/2|
{g}e/2f/2e/2{gcd}cB/2{G}A/2c/2|
{g}df/2A/2{g}d/2fA/2|  !
{gcd}c3e|1 |
{g}Ad/2{G}AB/2{GdG}c/2e/2|
{g}f/2e/2f/2{gBd}Bc/2{G}A|  !
{g}B/2eB/2e/2f/2B|
{gef}e3{A}e:|2 |
{gfg}fd/2{g}fd/2f/2d/2|  !
{g}c/2e/2f/2ec/2{gBd}B/2A/2|
{GdG}c/2e{Gdc}dc/2{gBd}B|
{G}A2-A/2e/2{g}f/2e/2|] |:  !
| a/2{g}a{fg}fe/2{gcd}c/2B/2|
{gAGAG}A3/2{GdG}ce/2a|
{gAGAG}A3/2{Gdc}df/2a|  !
{ef}e3-e/2{A}e/2{g}f/2e/2|1 |
a/2f/2a/2{fg}fe/2{gcd}c/2e/2|
{g}A/2c/2A/2{GdG}ce/2a|  !
A/2B/2e/2{gBd}Bf/2B|
{gef}e2-e/2{A}e/2{g}f/2e/2:| |
{Gdc}df/2{ag}af/2{g}d/2{e}A|  !
{g}c/2e/2f/2{gef}ec/2{g}B/2{e}A/2|
e/2B{gde}dc/2{e}B|
{G}A3e|] |:  !
| {Gdc}da/2ca/2B|
{gAGAG}A3/2{Gdc}df/2a|
{f}gd/2{gBd}Bd/2{g}B|  !
{gAGAG}A3f|1 |
{Gdc}df/2cf/2B|
{gAGAG}A3/2{Gdc}df/2a|  !
{gef}ef/2{gf}gf/2{g}e|
{ag}a3f:| |
{gf}gd/2Bd/2{gBd}B|  !
{e}A/2d/2f/2af/2{g}d/2{e}A/2|
{g}B/2dB/2{g}c/2B/2{G}A|
{Gdc}d2-d/2|] |:  !
e/2{g}f/2e/2|
a/2f/2e/2{ag}af/2{g}e/2c/2|
{g}e/2f/2e/2{gcd}cB/2{e}A/2c/2|  !
{g}d/2f/2a/2{fg}fd/2{G}A|
{gef}e2-e/2{A}e/2{g}f/2e/2|1 |
a/2f/2e/2{ag}af/2{g}e/2c/2|  !
{g}e/2f/2e/2{gcd}cB/2{e}A/2c/2|
{gBd}B/2eB/2d/2f/2{g}B|
{gef}e2-e/2{A}e/2{g}f/2e/2:| |  !
{g}d/2f/2a/2d/2{g}f/2af/2|
{g}e/2f/2e/2{gcd}cB/2{e}A/2e/2|
g/2B/2e/2{Gdc}dc/2{e}B|  !
{gAGAG}A3|]
